public/img/handyman-tools.svg

<svg width="20" height="20" viewBox="0 0 20 20" fill="none" xmlns="http://www.w3.org/2000/svg">
<path d="M3.96105 7.73223C4.36295 7.73223 4.75775 7.66929 5.1381 7.54803L7.39871 9.80709L9.8744 7.33189L7.61484 5.07036C8.05042 3.70925 7.69253 2.20106 6.67738 1.18626C5.95472 0.463391 4.99269 0.0654297 3.97123 0.0654297C3.4005 0.0654297 2.82822 0.194762 2.31475 0.439602C2.23728 0.476513 2.18304 0.548513 2.16851 0.632933C2.15441 0.717353 2.18156 0.803037 2.24184 0.863878L4.62035 3.24294C4.79585 3.41831 4.89269 3.65115 4.89269 3.89831C4.89269 4.14609 4.79571 4.37851 4.62035 4.55388C4.27095 4.90433 3.66007 4.90433 3.31004 4.55297L0.930697 2.17453C0.869716 2.11355 0.782067 2.08681 0.700033 2.10099C0.615402 2.11552 0.543613 2.16976 0.506701 2.24723C-0.192099 3.71164 0.107407 5.46531 1.25343 6.61049C1.97651 7.33357 2.93805 7.73223 3.96105 7.73223Z" fill="white" fill-opacity="0.5"/>
<path d="M16.0401 12.1321C15.6374 12.1321 15.242 12.1955 14.8613 12.317L12.3609 9.81641L9.88354 12.2934L12.3846 14.7944C11.95 16.1551 12.3076 17.6629 13.3221 18.6783C14.045 19.4012 15.007 19.7992 16.0284 19.7992C16.5994 19.7992 17.1716 19.6696 17.6851 19.4248C17.7626 19.388 17.8168 19.3159 17.8313 19.2315C17.8459 19.1471 17.8183 19.0613 17.758 19.0005L15.3796 16.621C15.2044 16.446 15.1076 16.2136 15.1074 15.9665C15.1074 15.7189 15.2042 15.4865 15.38 15.3109C15.7305 14.9601 16.34 14.9604 16.6899 15.3111L19.0687 17.6895C19.1295 17.7501 19.2143 17.777 19.2997 17.7631C19.3841 17.7483 19.4562 17.6943 19.493 17.6168C20.1918 16.1526 19.8925 14.3992 18.7465 13.2538C18.0236 12.5308 17.0623 12.1321 16.0401 12.1321Z" fill="white" fill-opacity="0.5"/>
<path d="M15.0224 6.49257C15.0224 6.49257 15.4362 6.85502 15.7774 6.68569C16.163 6.49165 17.2493 7.56266 17.5959 7.81326C17.5971 7.8141 17.5994 7.8141 17.6035 7.81606L17.414 8.00638C17.1638 8.25374 17.164 8.65767 17.4134 8.90546C17.663 9.15394 18.0642 9.15373 18.3138 8.90546L19.814 7.40723C20.0619 7.1581 20.0621 6.75488 19.8136 6.50618C19.566 6.25832 19.1622 6.25832 18.9137 6.50639L18.6639 6.756C18.4568 6.47088 18.1128 5.98492 18.1565 5.82394C18.3394 5.1189 16.9021 3.45351 16.9021 3.45351C13.3325 -0.115441 10.9481 -0.0343185 9.81384 0.355713C9.35855 0.512343 9.44297 0.61157 9.91587 0.694868C13.3572 1.29556 13.7841 3.32502 13.2008 4.10803C12.9764 4.41034 13.3036 4.77532 13.3036 4.77532L13.4266 4.89749L7.61597 10.7071C7.69477 10.7546 7.77133 10.8087 7.83884 10.8764L8.81631 11.8529C8.88269 11.9195 8.93694 11.9955 8.98402 12.0743L14.7948 6.26443L15.0224 6.49257Z" fill="white" fill-opacity="0.5"/>
<path d="M7.44781 11.2669C7.23336 11.0523 6.86838 11.0385 6.63898 11.2377L0.181567 17.0269C-0.0488869 17.2259 -0.0617288 17.5646 0.153146 17.7795L1.91201 19.5371C2.12702 19.752 2.46512 19.74 2.66393 19.5108L8.45489 13.0515C8.653 12.8223 8.64043 12.4586 8.42535 12.244L7.44781 11.2669Z" fill="white" fill-opacity="0.5"/>
</svg>

<svg width="20" height="20" fill="none" xmlns="http://www.w3.org/2000/svg"><path d="M3.961 7.732a3.87 3.87 0 0 0 1.177-.184l2.26 2.26 2.476-2.476-2.26-2.262a3.848 3.848 0 0 0-.937-3.884A3.803 3.803 0 0 0 3.971.066c-.57 0-1.143.129-1.656.374a.263.263 0 0 0-.073.424L4.62 3.243a.921.921 0 0 1 0 1.31.946.946 0 0 1-1.31 0L.93 2.175a.263.263 0 0 0-.424.073 3.84 3.84 0 0 0 .747 4.362 3.804 3.804 0 0 0 2.708 1.122zm12.079 4.4c-.403 0-.798.063-1.179.185l-2.5-2.5-2.477 2.476 2.5 2.501a3.851 3.851 0 0 0 .938 3.884 3.804 3.804 0 0 0 2.706 1.121c.571 0 1.144-.13 1.657-.374a.263.263 0 0 0 .073-.425l-2.378-2.379a.92.92 0 0 1 0-1.31c.35-.35.96-.35 1.31 0l2.379 2.378a.264.264 0 0 0 .424-.072 3.84 3.84 0 0 0-.746-4.363 3.803 3.803 0 0 0-2.707-1.122z" fill="#fff" fill-opacity=".5"/><path d="M15.022 6.493s.414.362.755.193c.386-.194 1.472.877 1.819 1.127l.008.003-.19.19a.637.637 0 0 0 .9.9l1.5-1.499a.637.637 0 0 0-.9-.9l-.25.249c-.207-.285-.551-.771-.508-.932.183-.705-1.254-2.37-1.254-2.37-3.57-3.57-5.954-3.488-7.088-3.098-.455.156-.371.256.102.339 3.441.6 3.868 2.63 3.285 3.413-.225.302.103.667.103.667l.123.122-5.811 5.81c.079.048.155.102.223.17l.977.976c.067.066.12.143.168.221l5.81-5.81.228.229zm-7.574 4.774a.605.605 0 0 0-.809-.03l-6.457 5.79a.508.508 0 0 0-.029.752l1.759 1.758a.508.508 0 0 0 .752-.026l5.79-6.46a.604.604 0 0 0-.029-.807l-.977-.977z" fill="#fff" fill-opacity=".5"/></svg>
